X: 3064
T: LANG SYNE
Q:"Reel."
R: Reel.
%R:reel
B: James Kerr "Merry Melodies" v.3 p.9 #64
Z: 2016 John Chambers <jc:trillian.mit.edu>
M: C
L: 1/8
K: G
D !segno!|:\
G2(GB) AGAB | G/G/G (Bd) e3g |\
dBBG AGAB | GEED GDB,D ::\
dBBG AGAB | dBBd e3g |\
dBBG AGAB |[1 GEED G3e :|\
[2 GEED GDB,D !segno!|]

%%sep 1 1 500
%%sep 1 1 500

